!!!!SEGMENT: Ser2008-Si_bona_suscepimus.krn
!!!id: Ser2008
!!!AGN: Motet
!!!SCT: CRIM
!!!voices: 4
!!!COM: Claudin de Sermisy
!!!OTL: Si bona suscepimus
**kern	**text	**kern	**text	**kern	**text	**kern	**text
*part4	*part4	*part3	*part3	*part2	*part2	*part1	*part1
*staff4	*staff4	*staff3	*staff3	*staff2	*staff2	*staff1	*staff1
*I"Bassus	*	*I"Tenor	*	*I"Altus	*	*I"Superius	*
*I'B	*	*I'T	*	*I'A	*	*I'S	*
*clefF4	*	*clefGv2	*	*clefGv2	*	*clefG2	*
*k[b-]	*	*k[b-]	*	*k[b-]	*	*k[b-]	*
*F:	*	*F:	*	*F:	*	*F:	*
*M2/1	*	*M2/1	*	*M2/1	*	*M2/1	*
*met(C|)	*	*met(C|)	*	*met(C|)	*	*met(C|)	*
!!section: Prima pars: Si bona suscepimus
!!!OMD: Prima pars: Si bona suscepimus
=1	=1	=1	=1	=1	=1	=1	=1
0r	.	0r	.	1r	.	0a	Si
.	.	.	.	[1d	Si	.	.
=2	=2	=2	=2	=2	=2	=2	=2
0r	.	0r	.	1d]	.	1a	bo-
.	.	.	.	1d	bo-	1f	-na
=3	=3	=3	=3	=3	=3	=3	=3
0r	.	0r	.	1B-y	-na	1.b-y	su-
.	.	.	.	[1e-i	su-	.	.
.	.	.	.	.	.	2a	.
=4	=4	=4	=4	=4	=4	=4	=4
0r	.	0r	.	2e-]	.	2g	.
.	.	.	.	2d	.	2f	-sce-
.	.	.	.	2c	.	1g	-pi-
.	.	.	.	2B-y	-sce-	.	.
=5	=5	=5	=5	=5	=5	=5	=5
1r	.	0A	Si	1c	-pi-	0a	-mus
[1D	Se	.	.	[1d	-mus	.	.
=6	=6	=6	=6	=6	=6	=6	=6
1D]	.	1A	bo-	0d_	.	0r	.
1D	bo-	1F	-na	.	.	.	.
=7	=7	=7	=7	=7	=7	=7	=7
1BB-y	-na	1.B-y	su-	1d]	.	0r	.
[1E-X	su-	.	.	1r	.	.	.
.	.	2A	.	.	.	.	.
=8	=8	=8	=8	=8	=8	=8	=8
2E-]	.	2G	.	0r	.	0r	.
2D	.	2F	-sce-	.	.	.	.
2C	.	1G	-pi-	.	.	.	.
2BB-y	-sce-	.	.	.	.	.	.
=9	=9	=9	=9	=9	=9	=9	=9
1C	-pi-	0A	-mus	0r	.	1r	.
1D	-mus	.	.	.	.	1a	de
=10	=10	=10	=10	=10	=10	=10	=10
0r	.	0r	.	1G	de	1.b-y	ma-
.	.	.	.	[1d	ma-	.	.
.	.	.	.	.	.	2a	-nu
=11	=11	=11	=11	=11	=11	=11	=11
0r	.	0r	.	2d]	.	2b-y	Do-
.	.	.	.	2e	-nu	2cc	-mi-
.	.	.	.	2f	.	[1a	-ni,
.	.	.	.	4e	.	.	.
.	.	.	.	4d	.	.	.
=12	=12	=12	=12	=12	=12	=12	=12
0r	.	0A	de	2c	.	1a]	.
.	.	.	.	1d	Do-	.	.
.	.	.	.	.	.	1r	.
.	.	.	.	2c	-mi-	.	.
=13	=13	=13	=13	=13	=13	=13	=13
1GG	de	1.B-y	ma-	0d	-ni,	0r	.
[1D	ma-	.	.	.	.	.	.
.	.	2A	-nu	.	.	.	.
=14	=14	=14	=14	=14	=14	=14	=14
2D]	.	2B-y	Do-	0r	.	0r	.
2E	-nu	2c	-mi-	.	.	.	.
2F	Do-	2A	.	.	.	.	.
2D	-mi-	[2B-y	.	.	.	.	.
=15	=15	=15	=15	=15	=15	=15	=15
1E-X	.	2B-]	.	0r	.	0r	.
.	.	4A	.	.	.	.	.
.	.	4G	.	.	.	.	.
2D	.	4F	.	.	.	.	.
.	.	4G	.	.	.	.	.
[2C	.	4A	.	.	.	.	.
.	.	4B-y	.	.	.	.	.
=16	=16	=16	=16	=16	=16	=16	=16
4C]	.	2A	.	0r	.	1r	.
4BB-y	.	.	.	.	.	.	.
2GG	.	1G	.	.	.	.	.
1AA	.	.	.	.	.	1a	de
.	.	2F#i	.	.	.	.	.
=17	=17	=17	=17	=17	=17	=17	=17
2GG	-ni,	2.G	.	2r	.	1.b-y	ma-
1G	de	.	.	2d	de	.	.
.	.	4A	.	.	.	.	.
.	.	4B-y	.	2e	ma-	.	.
.	.	4c	.	.	.	.	.
2D	ma-	[2d	.	2f	-nu	2a	-nu
=18	=18	=18	=18	=18	=18	=18	=18
2G	-nu	2d]	.	1g	Do-	2b-y	Do-
2C	Do-	2e	.	.	.	2cc	.
2F	-mi-	2c	.	[1f	-mi-	2a	.
[2BB-y	.	[2d	.	.	.	[2b-y	.
=19	=19	=19	=19	=19	=19	=19	=19
2BB-]	.	2d]	.	2f]	.	2b-]	.
2C	.	4c	.	2.e	.	4a	.
.	.	4B-y	.	.	.	4g	.
1D	.	2A	.	.	.	2f	.
.	.	.	.	4d	.	.	.
.	.	2F	.	[2d	.	[2a	.
=20	=20	=20	=20	=20	=20	=20	=20
1E-X	.	1G	.	2d]	.	2a]	.
.	.	.	.	2c	.	1g	.
1D	.	1A	.	1d	.	.	.
.	.	.	.	.	.	2f#i	-mi-
=21	=21	=21	=21	=21	=21	=21	=21
[0GG	-ni,	0G	-ni,	1B-y	-ni,	0g	-ni,
.	.	.	.	2r	.	.	.
.	.	.	.	2G	ma-	.	.
=22	=22	=22	=22	=22	=22	=22	=22
1GG]	.	0r	.	4G	-la	2r	.
.	.	.	.	4A	.	.	.
.	.	.	.	4B-y	.	2d	ma-
.	.	.	.	4c	.	.	.
1r	.	.	.	2d	.	4d	-la
.	.	.	.	.	.	4e	.
.	.	.	.	2B-y	au-	4f	.
.	.	.	.	.	.	4g	.
=23	=23	=23	=23	=23	=23	=23	=23
0r	.	0r	.	2c	.	2a	.
.	.	.	.	2d	.	2f	au-
.	.	.	.	1e-i	.	2.g	-tem
.	.	.	.	.	.	4a	.
=24	=24	=24	=24	=24	=24	=24	=24
1r	.	0r	.	0d	-tem	1b-y	.
2r	.	.	.	.	.	2a	.
2GG	ma-	.	.	.	.	[2b-y	.
=25	=25	=25	=25	=25	=25	=25	=25
4GG	-la	2r	.	0r	.	2b-]	.
4AA	.	.	.	.	.	.	.
4BB-y	.	2.D	ma-	.	.	4a	.
4C	.	.	.	.	.	4g	.
2D	.	.	.	.	.	1f	.
.	.	4E	.	.	.	.	.
2BB-y	au-	4F	.	.	.	.	.
.	.	4G	.	.	.	.	.
=26	=26	=26	=26	=26	=26	=26	=26
2C	.	2A	.	0r	.	0r	.
2D	.	2F	-la	.	.	.	.
1E-X	.	2.G	au-	.	.	.	.
.	.	4A	.	.	.	.	.
=27	=27	=27	=27	=27	=27	=27	=27
1D	-tem	1B-y	.	0r	.	0r	.
2r	.	1A	-tem	.	.	.	.
2D	qua-	.	.	.	.	.	.
=28	=28	=28	=28	=28	=28	=28	=28
1F	-re	2r	.	0r	.	0r	.
.	.	2A	qua-	.	.	.	.
2E-X	non	1c	-re	.	.	.	.
2C	su-	.	.	.	.	.	.
=29	=29	=29	=29	=29	=29	=29	=29
1E-X	-sti-	2B-y	non	0r	.	0r	.
.	.	2G	su-	.	.	.	.
2.D	-ne-	1B-y	-sti-	.	.	.	.
4E-i	.	.	.	.	.	.	.
=30	=30	=30	=30	=30	=30	=30	=30
2F	.	2A	-ne-	0r	.	0r	.
2.G	-a-	2.B-y	-a-	.	.	.	.
4F	.	4A	.	.	.	.	.
2D	.	[2d	.	.	.	.	.
=31	=31	=31	=31	=31	=31	=31	=31
1E-X	.	2d]	.	1r	.	0r	.
.	.	2c	.	.	.	.	.
1D	-mus?	1B-y	.	2r	.	.	.
.	.	.	.	2d	qua-	.	.
=32	=32	=32	=32	=32	=32	=32	=32
0r	.	0A	.	1f	-re	2r	.
.	.	.	.	.	.	2a	qua-
.	.	.	.	1e	non	1cc	-re
=33	=33	=33	=33	=33	=33	=33	=33
1r	.	0D	-mus?	0d	su-	1b-y	non
2r	.	.	.	.	.	1a	su-
2D	[non]	.	.	.	.	.	.
=34	=34	=34	=34	=34	=34	=34	=34
4D	su-	2r	.	1.f	-sti-	1dd	-sti-
4C	.	.	.	.	.	.	.
4D	.	2A	non	.	.	.	.
4E-X	.	.	.	.	.	.	.
4F	.	2.A	su-	.	.	2.cc	-ne-
4G	.	.	.	.	.	.	.
[2A	.	.	.	2e	.	.	.
.	.	4B-y	-sti-	.	.	4b-y	.
=35	=35	=35	=35	=35	=35	=35	=35
2A]	.	2c	-ne-	2f	.	4a	.
.	.	.	.	.	.	4g	.
2G	-ste-	1d	-a-	2g	-ne-	2b-y	.
1A	-a-	.	.	1e	-a-	[1a	.
.	.	2c#i	.	.	.	.	.
=36	=36	=36	=36	=36	=36	=36	=36
0D	-mus?	0d	-mus?	0d	-mus?	2a]	.
.	.	.	.	.	.	2f	-a-
.	.	.	.	.	.	1f	-mus?
=37	=37	=37	=37	=37	=37	=37	=37
1.BB-y	Do-	1.B-y	Do-	1.d	Do-	1.f	Do-
2BB-y	-mi-	2B-y	-mi-	2d	-mi-	2f	-mi-
=38	=38	=38	=38	=38	=38	=38	=38
1F	-nus	1c	-nus	1f	-nus	1a	-nus
[1G	de-	[1B-y	de-	1d	de-	[1b-y	de-
=39	=39	=39	=39	=39	=39	=39	=39
1G]	.	1B-]	.	1e	.	1b-]	.
1F	-dit,	1c	-dit,	1f	-dit,	1a	-dit,
=40	=40	=40	=40	=40	=40	=40	=40
1r	.	1r	.	1r	.	1r	.
[1D	Do-	[1d	Do-	[1f	Do-	[1a	Do-
=41	=41	=41	=41	=41	=41	=41	=41
2D]	.	2d]	.	2f]	.	2a]	.
2D	-mi-	2d	-mi-	2f	-mi-	2a	-mi-
1D	-nus	1d	-nus	1f	-nus	1a	-nus
=42	=42	=42	=42	=42	=42	=42	=42
1.G	ab-	1.B-y	ab-	1.d	ab-	1.b-y	ab-
2C	-stu-	2c	-stu-	2e	-stu-	2g	-stu-
=43	=43	=43	=43	=43	=43	=43	=43
0C	-lit;	1c	-lit;	0e	-lit;	[0g	-lit;
.	.	2r	.	.	.	.	.
.	.	2G	si-	.	.	.	.
=44	=44	=44	=44	=44	=44	=44	=44
2r	.	1.c	-cut	0r	.	1g]	.
2C	si-	.	.	.	.	.	.
[1F	-cut	.	.	.	.	1r	.
.	.	2B-y	Do-	.	.	.	.
=45	=45	=45	=45	=45	=45	=45	=45
2F]	.	2A	-mi-	0r	.	0r	.
2E-X	Do-	2G	-no	.	.	.	.
2D	-mi-	2F	pla-	.	.	.	.
2C	-no	2E	-cu-	.	.	.	.
=46	=46	=46	=46	=46	=46	=46	=46
2BB-y	pla-	1D	-it,	0r	.	0r	.
2AA	-cu-	.	.	.	.	.	.
1GG	-it,	2r	.	.	.	.	.
.	.	2D	i-	.	.	.	.
=47	=47	=47	=47	=47	=47	=47	=47
2r	.	4D	-ta	0r	.	0r	.
.	.	4C	.	.	.	.	.
2GG	i-	4D	.	.	.	.	.
.	.	4E	.	.	.	.	.
2AA	-ta	2.F	.	.	.	.	.
2BB-y	fa-	.	.	.	.	.	.
.	.	4G	.	.	.	.	.
=48	=48	=48	=48	=48	=48	=48	=48
2C	.	2A	.	0r	.	0r	.
[2D	.	1B-y	fa-	.	.	.	.
4D]	.	.	.	.	.	.	.
4C	.	.	.	.	.	.	.
2AA	.	[2A	.	.	.	.	.
=49	=49	=49	=49	=49	=49	=49	=49
1BB-y	-ctum	2A]	.	1r	.	2r	.
.	.	2G	-ctum	.	.	2g	si-
1AA	est:	1A	est:	2r	.	[1cc	-cut
.	.	.	.	2c	si-	.	.
=50	=50	=50	=50	=50	=50	=50	=50
0r	.	0r	.	1.f	-cut	2cc]	.
.	.	.	.	.	.	2b-y	Do-
.	.	.	.	.	.	2a	-mi-
.	.	.	.	2e	Do-	2g	-no
=51	=51	=51	=51	=51	=51	=51	=51
0r	.	0r	.	2d	-mi-	2f	pla-
.	.	.	.	2c	-no	2e	-cu-
.	.	.	.	2B-y	pla-	1d	-it,
.	.	.	.	2A	-cu-	.	.
=52	=52	=52	=52	=52	=52	=52	=52
0r	.	0r	.	1G	-it,	2r	.
.	.	.	.	.	.	2d	i-
.	.	.	.	2r	.	4d	-ta
.	.	.	.	.	.	4c	.
.	.	.	.	2G	i-	4d	.
.	.	.	.	.	.	4e	.
=53	=53	=53	=53	=53	=53	=53	=53
0r	.	0r	.	2A	-ta	4f	.
.	.	.	.	.	.	4e	.
.	.	.	.	2B-y	fa-	4f	.
.	.	.	.	.	.	4g	.
.	.	.	.	2c	-ctum	2a	.
.	.	.	.	[2d	.	[2b-y	fa-
=54	=54	=54	=54	=54	=54	=54	=54
0r	.	0r	.	4d]	.	4b-]	.
.	.	.	.	4c	.	4a	.
.	.	.	.	2A	.	1a	.
.	.	.	.	1B-y	.	.	.
.	.	.	.	.	.	2g	-ctum
=55	=55	=55	=55	=55	=55	=55	=55
0r	.	0r	.	1A	est:	1a	est:
.	.	.	.	1r	.	1r	.
=56	=56	=56	=56	=56	=56	=56	=56
0D	sit	0A	sit	0d	sit	0f	sit
=57	=57	=57	=57	=57	=57	=57	=57
1D	no-	1A	no-	1d	no-	1f	no-
1D	-men	1A	-men	1d	-men	1f	-men
=58	=58	=58	=58	=58	=58	=58	=58
1.G	Do-	1.B-y	Do-	1.d	Do-	1.g	Do-
2G	-mi-	2B-y	-mi-	2e	-mi-	2g	-mi-
=59	=59	=59	=59	=59	=59	=59	=59
1F	-ni	1c	-ni	1f	-ni	1a	-ni
1BB-y	be-	1d	be-	1f	be-	1b-y	be-
=60	=60	=60	=60	=60	=60	=60	=60
1E-X	-ne-	2B-y	-ne-	1g	-ne-	2g	-ne-
.	.	2.e-X	-di-	.	.	2.cc	-di-
1C	-di-	.	.	1e	-di-	.	.
.	.	4d	.	.	.	4b-y	.
.	.	4c	.	.	.	4a	.
.	.	4B-y	.	.	.	4g	.
=61	=61	=61	=61	=61	=61	=61	=61
0D	.	2A	.	0d	-ctum.	2f	.
.	.	2G	.	.	.	1g	.
.	.	1A	.	.	.	.	.
.	.	.	.	.	.	2f#i	.
=62	=62	=62	=62	=62	=62	=62	=62
0GG	-ctum.	1G	-ctum.	1r	.	0g	-ctum.
.	.	1r	.	1B-y	Nu-	.	.
=63	=63	=63	=63	=63	=63	=63	=63
0r	.	1G	Nu-	0d	-dus	0r	.
.	.	1B-y	-dus	.	.	.	.
=64	=64	=64	=64	=64	=64	=64	=64
1G	Nu-	1r	.	1r	.	1g	Nu-
1G	-dus	2r	.	1d	e-	[1b-y	-dus
.	.	2B-y	e-	.	.	.	.
=65	=65	=65	=65	=65	=65	=65	=65
2r	.	1.B-y	-gres-	0d	-gres-	2b-]	.
2G	e-	.	.	.	.	2g	e-
1G	-gres-	.	.	.	.	1b-y	-gres-
.	.	2B-y	-sus	.	.	.	.
=66	=66	=66	=66	=66	=66	=66	=66
1C	-sus	2.G	sum	1e	-sus	1cc	-sus
.	.	4A	.	.	.	.	.
1G	sum,	1B-y	.	1d	sum	2dd	sum
.	.	.	.	.	.	4cc	.
.	.	.	.	.	.	4b-y	.
=67	=67	=67	=67	=67	=67	=67	=67
0r	.	2r	.	2r	.	1a	.
.	.	2d	de	2f	de	.	.
.	.	2d	u-	2f	u-	2r	.
.	.	2d	-te-	2f	-te-	2a	de
=68	=68	=68	=68	=68	=68	=68	=68
0r	.	2d	-ro	2f	-ro	2a	ven-
.	.	2c	ma-	2e	ma-	2a	-tre
.	.	2.B-y	-tris	2.d	-tris	2b-y	ma-
.	.	.	.	.	.	[2dd	-tris
.	.	4A	.	4c	.	.	.
=69	=69	=69	=69	=69	=69	=69	=69
0r	.	2B-y	.	4d	.	2dd]	.
.	.	.	.	4e	.	.	.
.	.	2F	.	1f	.	2cc	.
.	.	1G	me-	.	.	1b-y	me-
.	.	.	.	2e	me-	.	.
=70	=70	=70	=70	=70	=70	=70	=70
2r	.	1F	-ae,	1f	-ae,	0a	-ae,
2D	et	.	.	.	.	.	.
1F	nu-	2r	.	1r	.	.	.
.	.	2A	et	.	.	.	.
=71	=71	=71	=71	=71	=71	=71	=71
1G	-dus	1B-y	nu-	2r	.	1r	.
.	.	.	.	2d	et	.	.
1r	.	1A	-dus	1f	nu-	2r	.
.	.	.	.	.	.	2a	et
=72	=72	=72	=72	=72	=72	=72	=72
1r	.	1r	.	1g	-dus	1b-y	nu-
2r	.	2r	.	1r	.	1a	-dus
2D	re-	2A	re-	.	.	.	.
=73	=73	=73	=73	=73	=73	=73	=73
1D	-ver-	1A	-ver-	2r	.	2r	.
.	.	.	.	2f	re-	2dd	re-
1BB-y	-tar	1B-y	-tar	1f	-ver-	1dd	-ver-
=74	=74	=74	=74	=74	=74	=74	=74
1C	.	1G	il-	1e	-tar	1cc	-tar
1D	.	1F	-luc,	1f	il-	1a	il-
=75	=75	=75	=75	=75	=75	=75	=75
0GG	il-	0B-y	il-	1.g	.	1.b-y	.
.	.	.	.	4f	.	4a	.
.	.	.	.	4e	.	4g	.
=76	=76	=76	=76	=76	=76	=76	=76
0BB-y	.	[0B-y	-luc.	[0d	-luc.	[0f	-luc.
=77	=77	=77	=77	=77	=77	=77	=77
0BB-y;	-luc.	0B-;]	.	0d;]	.	0f;]	.
=78||	=78||	=78||	=78||	=78||	=78||	=78||	=78||
1.BB-y	Do-	1.B-y	Do-	1.d	Do-	1.f	Do-
2BB-y	-mi-	2B-y	-mi-	2d	-mi-	2f	-mi-
=79	=79	=79	=79	=79	=79	=79	=79
1F	-nus	1c	-nus	1f	-nus	1a	-nus
[1G	de-	[1B-y	de-	1d	de-	[1b-y	de-
=80	=80	=80	=80	=80	=80	=80	=80
1G]	.	1B-]	.	1e	.	1b-]	.
1F	-dit,	1c	-dit,	1f	-dit,	1a	-dit,
=81	=81	=81	=81	=81	=81	=81	=81
1r	.	1r	.	1r	.	1r	.
[1D	Do-	[1d	Do-	[1f	Do-	[1a	Do-
=82	=82	=82	=82	=82	=82	=82	=82
2D]	.	2d]	.	2f]	.	2a]	.
2D	-mi-	2d	-mi-	2f	-mi-	2a	-mi-
1D	-nus	1d	-nus	1f	-nus	1a	-nus
=83	=83	=83	=83	=83	=83	=83	=83
1.G	ab-	1.B-y	ab-	1.d	ab-	1.b-y	ab-
2C	-stu-	2c	-stu-	2e	-stu-	2g	-stu-
=84	=84	=84	=84	=84	=84	=84	=84
0C	-lit;	1c	-lit;	0e	-lit;	[0g	-lit;
.	.	2r	.	.	.	.	.
.	.	2G	si-	.	.	.	.
=85	=85	=85	=85	=85	=85	=85	=85
2r	.	1.c	-cut	0r	.	1g]	.
2C	si-	.	.	.	.	.	.
[1F	-cut	.	.	.	.	1r	.
.	.	2B-y	Do-	.	.	.	.
=86	=86	=86	=86	=86	=86	=86	=86
2F]	.	2A	-mi-	0r	.	0r	.
2E-X	Do-	2G	-no	.	.	.	.
2D	-mi-	2F	pla-	.	.	.	.
2C	-no	2E	-cu-	.	.	.	.
=87	=87	=87	=87	=87	=87	=87	=87
2BB-y	pla-	1D	-it,	0r	.	0r	.
2AA	-cu-	.	.	.	.	.	.
1GG	-it,	2r	.	.	.	.	.
.	.	2D	i-	.	.	.	.
=88	=88	=88	=88	=88	=88	=88	=88
2r	.	4D	-ta	0r	.	0r	.
.	.	4C	.	.	.	.	.
2GG	i-	4D	.	.	.	.	.
.	.	4E	.	.	.	.	.
2AA	-ta	2.F	.	.	.	.	.
2BB-y	fa-	.	.	.	.	.	.
.	.	4G	.	.	.	.	.
=89	=89	=89	=89	=89	=89	=89	=89
2C	.	2A	.	0r	.	0r	.
2.D	.	1B-y	fa-	.	.	.	.
4C	.	.	.	.	.	.	.
2AA	.	[2A	.	.	.	.	.
=90	=90	=90	=90	=90	=90	=90	=90
1BB-y	-ctum	2A]	.	1r	.	2r	.
.	.	2G	-ctum	.	.	2g	si-
1AA	est:	1A	est:	2r	.	[1cc	-cut
.	.	.	.	2c	si-	.	.
=91	=91	=91	=91	=91	=91	=91	=91
0r	.	0r	.	1.f	-cut	2cc]	.
.	.	.	.	.	.	2b-y	Do-
.	.	.	.	.	.	2a	-mi-
.	.	.	.	2e	Do-	2g	-no
=92	=92	=92	=92	=92	=92	=92	=92
0r	.	0r	.	2d	-mi-	2f	pla-
.	.	.	.	2c	-no	2e	-cu-
.	.	.	.	2B-y	pla-	1d	-it,
.	.	.	.	2A	-cu-	.	.
=93	=93	=93	=93	=93	=93	=93	=93
0r	.	0r	.	1G	-it,	2r	.
.	.	.	.	.	.	2d	i-
.	.	.	.	2r	.	4d	-ta
.	.	.	.	.	.	4c	.
.	.	.	.	2G	i-	4d	.
.	.	.	.	.	.	4e	.
=94	=94	=94	=94	=94	=94	=94	=94
0r	.	0r	.	2A	-ta	4f	.
.	.	.	.	.	.	4e	.
.	.	.	.	2B-y	fa-	4f	.
.	.	.	.	.	.	4g	.
.	.	.	.	2c	-ctum	2a	.
.	.	.	.	[2d	.	[2b-y	fa-
=95	=95	=95	=95	=95	=95	=95	=95
0r	.	0r	.	4d]	.	2b-]	.
.	.	.	.	4c	.	.	.
.	.	.	.	2A	.	1a	.
.	.	.	.	1B-y	.	.	.
.	.	.	.	.	.	2g	-ctum
=96	=96	=96	=96	=96	=96	=96	=96
0r	.	0r	.	1A	est:	1a	est:
.	.	.	.	1r	.	1r	.
=97	=97	=97	=97	=97	=97	=97	=97
0D	sit	0A	sit	0d	sit	0f	sit
=98	=98	=98	=98	=98	=98	=98	=98
1D	no-	1A	no-	1d	no-	1f	no-
1D	-men	1A	-men	1d	-men	1f	-men
=99	=99	=99	=99	=99	=99	=99	=99
1.G	Do-	1.B-y	Do-	1.d	Do-	1.g	Do-
2G	-mi-	2B-y	-mi-	2e	-mi-	2g	-mi-
=100	=100	=100	=100	=100	=100	=100	=100
1F	-ni	1c	-ni	1f	-ni	1a	-ni
1BB-y	be-	1d	be-	1f	be-	1b-y	be-
=101	=101	=101	=101	=101	=101	=101	=101
1E-X	-ne-	2B-y	-ne-	1g	-ne-	2g	-ne-
.	.	2.e-i	-di-	.	.	2.cc	-di-
1C	.	.	.	1e	-di-	.	.
.	.	4d	.	.	.	4b-y	.
.	.	4c	.	.	.	4a	.
.	.	4B-y	.	.	.	4g	.
=102	=102	=102	=102	=102	=102	=102	=102
0D	-di-	2A	.	0d	.	2f	.
.	.	2G	.	.	.	1g	.
.	.	1A	.	.	.	.	.
.	.	.	.	.	.	2f#i	.
=103	=103	=103	=103	=103	=103	=103	=103
0GGl	-ctum.	0Gl	-ctum.	0dl	-ctum.	0gl	-ctum.
==	==	==	==	==	==	==	==
*-	*-	*-	*-	*-	*-	*-	*-
!!!system-decoration: [*]
!!!YEM: Copyright © Centre d'études supérieures de la Renaissance
!!!RDF**kern: i = editorial accidental
!!!RDF**kern: l = terminal long
!!!ENC: Benjamin Ory
!!!END: 2021/10/20
!!!EED: Benjamin Ory
!!!EEV: 2021/10/20
!!!YEC: Copyright 2021 Benjamin Ory, All Rights Reserved
!!!ONB: Translated from MusicXML on 2021/10/20
